X:16
C:Page 08
T:Jenny Nettles. MBe.16
S:Matthew Betham MS, Towcett Cumbria, 1815
O:England;Cumbria;Towcett
Z:VMP – Hugh Taylor, 2012
M:C|
L:1/8
Q:1/2=100
R:.Reel
N:A widespread tune. See versions in both Jackson, H.S.J (Winder) and Harrison collections.
N:NB1-Lots of splodges makes this first bar difficult to decipher. Notes given are as commonly played, and
N:fit in with bar 3.
N:NB2-This bar is as written making an odd length bar. The B section has only 3 bars. I’m leaving it to the
N:player to decide on a satisfying correction.
K:Am
“^NB1″c2 B2 A2 a2|efge dBGB|c2 B2 A2 a2|gedf e2 A2:|
|:cded cded|dBGB dBGB|”^NB2″a2 fedf e2 A2:|

